X:97
T:???
M:4/4
L:1/8
S:Tara Diamond
R:Reel
K:D
D2FA GEAF|D2FA d2ef|geag efdc|ABAG EFGE|
D2FA GEAF|D2FA d2ef|geag efdc|ABGE FDD2:|
~f3a g2ag|fdfa g2ag|fdcA G2FG|ABcA dcA2|
fdfa g2ag|edfa g2ag|fddc ABAG|EFGE FDD2:|


